assets/svgs/rss.svg

<svg xmlns="http://www.w3.org/2000/svg" viewBox="0 0 24 24">
  <path
    d="M12 2c5.514 0 10 4.486 10 10s-4.486 10-10 10-10-4.486-10-10 4.486-10 10-10zm0-2c-6.627 0-12 5.373-12 12s5.373 12 12 12 12-5.373 12-12-5.373-12-12-12zm-1.29 14.646c0 .748-.607 1.354-1.354 1.354-.749 0-1.356-.606-1.356-1.354 0-.747.607-1.353 1.355-1.353.748.001 1.355.606 1.355 1.353zm-2.71-5.237v2.004c2.521.025 4.567 2.068 4.592 4.587h2.008c-.026-3.629-2.965-6.566-6.6-6.591zm0-1.404c4.407.02 7.98 3.581 7.993 7.995h2.007c-.012-5.513-4.48-9.981-10-10v2.005z" />
</svg>

<svg xmlns="http://www.w3.org/2000/svg" viewBox="0 0 24 24"><path d="M12 2c5.514 0 10 4.486 10 10s-4.486 10-10 10S2 17.514 2 12 6.486 2 12 2zm0-2C5.373 0 0 5.373 0 12s5.373 12 12 12 12-5.373 12-12S18.627 0 12 0zm-1.29 14.646a1.354 1.354 0 1 1-2.709 0 1.354 1.354 0 0 1 2.709 0zM8 9.409v2.004A4.641 4.641 0 0 1 12.592 16H14.6A6.642 6.642 0 0 0 8 9.409zm0-1.404c4.407.02 7.98 3.581 7.993 7.995H18c-.012-5.513-4.48-9.981-10-10v2.005z"/></svg>
